svgs/light/rectangle-history.svg

<svg xmlns="http://www.w3.org/2000/svg" viewBox="0 0 512 512"><!--! Font Awesome Pro 6.1.1 by @fontawesome - https://fontawesome.com License - https://fontawesome.com/license (Commercial License) Copyright 2022 Fonticons, Inc. --><path d="M448 128C483.3 128 512 156.7 512 192V448C512 483.3 483.3 512 448 512H64C28.65 512 0 483.3 0 448V192C0 156.7 28.65 128 64 128H448zM448 160H64C46.33 160 32 174.3 32 192V448C32 465.7 46.33 480 64 480H448C465.7 480 480 465.7 480 448V192C480 174.3 465.7 160 448 160zM448 64C456.8 64 464 71.16 464 80C464 88.84 456.8 96 448 96H64C55.16 96 48 88.84 48 80C48 71.16 55.16 64 64 64H448zM400 0C408.8 0 416 7.164 416 16C416 24.84 408.8 32 400 32H112C103.2 32 96 24.84 96 16C96 7.164 103.2 0 112 0H400z"/></svg>

<svg xmlns="http://www.w3.org/2000/svg" viewBox="0 0 512 512"><!--! Font Awesome Pro 6.4.2 by @fontawesome - https://fontawesome.com License - https://fontawesome.com/license (Commercial License) Copyright 2023 Fonticons, Inc. --><path d="M480 192c0-17.7-14.3-32-32-32L64 160c-17.7 0-32 14.3-32 32l0 256c0 17.7 14.3 32 32 32l384 0c17.7 0 32-14.3 32-32l0-256zm-32-64c35.3 0 64 28.7 64 64l0 256c0 35.3-28.7 64-64 64L64 512c-35.3 0-64-28.7-64-64L0 192c0-35.3 28.7-64 64-64l384 0zm0-64c8.8 0 16 7.2 16 16s-7.2 16-16 16L64 96c-8.8 0-16-7.2-16-16s7.2-16 16-16l384 0zM400 0c8.8 0 16 7.2 16 16s-7.2 16-16 16L112 32c-8.8 0-16-7.2-16-16s7.2-16 16-16L400 0z"/></svg>
